X: 6
T: Jenny Picking Cockles
R: reel
M: 4/4
L: 1/8
K: Edor
|:A2 dc AG G2|(3EFG AB cA A2|dedc AG G2|AGcG ED D2|
A2 dc AG G2|(3EFG AB cA (3Bcd|ecdc AGEF|GEcG ED D2:|
|:f3d e3d|cA A2 (3Bcd eg|f3d ed (3Bcd|eaag fdde|
f3d e3d|cA A2 d2 (3Bcd|ecdc AGEF|GEcG ED D2:|

